assets/icon-phone.svg

<svg fill="none" height="12" viewBox="0 0 13 12" width="13" xmlns="http://www.w3.org/2000/svg"><path d="m9.33333 12.0002c-1.10246-.001-2.1878-.2735-3.16-.7933l-.3-.1667c-2.07283-1.11448-3.7722-2.81388-4.886663-4.88668l-.166667-.3c-.533453-.97773-.81524625-2.07288-.81999959-3.18668v-.44666c-.00028-.35536.14130659-.69614.39333359-.94667l1.126666-1.126665c.10942-.1102667.26387-.1634133.41797-.14382666.1541.01958666.29035.10969366.3687.24382666l1.5 2.573335c.15168.26192.10788.59317-.10667.80666l-1.26 1.26002c-.10464.10346-.12902.26333-.06.39333l.23333.44c.83803 1.55227 2.11287 2.8248 3.66667 3.66l.44.24c.13.069.28987.0446.39333-.06l1.26-1.26c.21347-.21453.54474-.25833.80667-.10667l2.5733 1.5c.1342.07834.2243.2146.2438.36868.0196.1541-.0335.3086-.1438.418l-1.1266 1.1267c-.2506.252-.5914.3936-.9467.3933z" fill="#0b1a26"/></svg>

<svg width="13" height="12" viewBox="0 0 13 12" fill="none" xmlns="http://www.w3.org/2000/svg">
<path d="M9.33333 12.0002C8.23087 11.9992 7.14553 11.7267 6.17333 11.2069L5.87333 11.0402C3.8005 9.92572 2.10113 8.22632 0.986667 6.15352L0.82 5.85352C0.286547 4.87579 0.00475375 3.78064 4.14504e-07 2.66684V2.22018C-0.000279585 1.86482 0.141307 1.52404 0.393334 1.27351L1.52 0.146845C1.62942 0.0365783 1.78387 -0.0165683 1.93797 0.00301834C2.09207 0.022605 2.22832 0.112712 2.30667 0.246845L3.80667 2.82018C3.95835 3.0821 3.91455 3.41335 3.7 3.62684L2.44 4.88686C2.33536 4.99032 2.31098 5.15019 2.38 5.28019L2.61333 5.72019C3.45136 7.27246 4.7262 8.54499 6.28 9.38019L6.72 9.62019C6.85 9.68919 7.00987 9.66479 7.11333 9.56019L8.37333 8.30019C8.5868 8.08566 8.91807 8.04186 9.18 8.19352L11.7533 9.69352C11.8875 9.77186 11.9776 9.90812 11.9971 10.0622C12.0167 10.2163 11.9636 10.3708 11.8533 10.4802L10.7267 11.6069C10.4761 11.8589 10.1353 12.0005 9.78 12.0002H9.33333Z" fill="#0B1A26"/>
</svg>
